Static/chat-network.svg

<svg width="22" height="24" viewBox="0 0 22 24" fill="none" xmlns="http://www.w3.org/2000/svg">
<path d="M18.6355 2.84531H11.6277V0.909375C11.6277 0.5625 11.3465 0.28125 10.9996 0.28125C10.6527 0.28125 10.3715 0.5625 10.3715 0.909375V2.85H3.36367C1.63867 2.85 0.232422 4.25156 0.232422 5.98125V15.8438C0.232422 17.5688 1.63398 18.975 3.36367 18.975H7.15117L4.66211 22.7531C4.46992 23.0437 4.54961 23.4281 4.84023 23.6203C4.94805 23.6906 5.06523 23.7234 5.18242 23.7234C5.38398 23.7234 5.58555 23.625 5.70742 23.4422L8.65117 18.975H13.348L16.2918 23.4422C16.4137 23.625 16.6105 23.7234 16.8168 23.7234C16.934 23.7234 17.0559 23.6906 17.159 23.6203C17.4496 23.4281 17.5293 23.0437 17.3371 22.7531L14.848 18.975H18.6355C20.3605 18.975 21.7668 17.5734 21.7668 15.8438V5.97656C21.7668 4.25156 20.3605 2.84531 18.6355 2.84531ZM20.5152 15.8391C20.5152 16.875 19.6715 17.7188 18.6355 17.7188H13.6902H8.30898H3.36367C2.32773 17.7188 1.48398 16.875 1.48398 15.8391V5.97656C1.48398 4.94063 2.32773 4.09688 3.36367 4.09688H18.6355C19.6715 4.09688 20.5152 4.94063 20.5152 5.97656V15.8391Z" fill="white"/>
<path d="M18.3207 7.44385H3.67695C3.33008 7.44385 3.04883 7.7251 3.04883 8.07197C3.04883 8.41885 3.33008 8.7001 3.67695 8.7001H18.3207C18.6676 8.7001 18.9488 8.41885 18.9488 8.07197C18.9488 7.7251 18.6676 7.44385 18.3207 7.44385Z" fill="white"/>
<path d="M18.3207 10.2842H3.67695C3.33008 10.2842 3.04883 10.5654 3.04883 10.9123C3.04883 11.2592 3.33008 11.5404 3.67695 11.5404H18.3207C18.6676 11.5404 18.9488 11.2592 18.9488 10.9123C18.9488 10.5607 18.6676 10.2842 18.3207 10.2842Z" fill="white"/>
<path d="M10.9988 13.1201H3.67695C3.33008 13.1201 3.04883 13.4014 3.04883 13.7482C3.04883 14.0951 3.33008 14.3764 3.67695 14.3764H10.9988C11.3457 14.3764 11.627 14.0951 11.627 13.7482C11.627 13.4014 11.3457 13.1201 10.9988 13.1201Z" fill="white"/>
</svg>

<svg xmlns="http://www.w3.org/2000/svg" width="22" height="24" fill="none"><path fill="#fff" d="M18.636 2.845h-7.008V.91a.628.628 0 1 0-1.257 0V2.85H3.364A3.134 3.134 0 0 0 .232 5.981v9.863a3.134 3.134 0 0 0 3.132 3.131H7.15l-2.489 3.778a.623.623 0 0 0 .52.97.632.632 0 0 0 .525-.28l2.944-4.468h4.697l2.944 4.467a.626.626 0 0 0 1.045-.689l-2.489-3.778h3.787a3.134 3.134 0 0 0 3.132-3.131V5.977a3.137 3.137 0 0 0-3.131-3.132Zm1.88 12.994c0 1.036-.844 1.88-1.88 1.88H3.364a1.883 1.883 0 0 1-1.88-1.88V5.977c0-1.036.844-1.88 1.88-1.88h15.272c1.036 0 1.88.844 1.88 1.88v9.862Z"/><path fill="#fff" d="M18.32 7.444H3.678a.628.628 0 0 0 0 1.256H18.32a.628.628 0 0 0 0-1.256ZM18.32 10.284H3.678a.628.628 0 0 0 0 1.256H18.32a.628.628 0 1 0 0-1.256ZM10.999 13.12H3.677a.628.628 0 0 0 0 1.256h7.322a.628.628 0 0 0 0-1.256Z"/></svg>
